images/sYFL.svg

<svg height="250" viewBox="0 0 250 250" width="250" xmlns="http://www.w3.org/2000/svg"><path d="m250 125c0 69.035156-55.964844 125-125 125s-125-55.964844-125-125 55.964844-125 125-125 125 55.964844 125 125zm0 0" fill="#fff"/><g fill="#2a5bdb"><path d="m116.796875 76.953125-29.6875-14.453125-28.710937 15.820312v49.804688l26.757812-9.570312-.195312-24.609376zm0 0"/><path d="m185.351562 42.578125-16.601562 5.859375 6.054688 18.75-49.609376-25.585938-29.882812 16.40625 68.554688 33.203126-19.140626 7.03125 6.054688 17.382812 52.929688-18.945312zm0 0"/><path d="m155.078125 192.578125-68.359375-33.007813 19.140625-7.226562-6.054687-17.382812-52.929688 18.945312 18.359375 54.101562 16.601563-5.664062-6.054688-18.945312 49.414062 25.585937zm0 0"/><path d="m165.429688 132.03125.195312 24.804688-32.03125 16.796874 29.6875 14.453126 28.90625-15.820313v-49.609375zm0 0"/></g></svg>

<!-- Generator: Adobe Illustrator 25.1.0, SVG Export Plug-In . SVG Version: 6.00 Build 0)  -->
<svg xmlns="http://www.w3.org/2000/svg" xmlns:xlink="http://www.w3.org/1999/xlink" width="250px" height="250px" viewBox="0 0 250 250" version="1.1">
<g id="surface1">
<path style=" stroke:none;fill-rule:nonzero;fill:rgb(100%,100%,100%);fill-opacity:1;" d="M 250 125 C 250 194.035156 194.035156 250 125 250 C 55.964844 250 0 194.035156 0 125 C 0 55.964844 55.964844 0 125 0 C 194.035156 0 250 55.964844 250 125 Z M 250 125 "/>
<path style=" stroke:none;fill-rule:nonzero;fill:rgb(16.470589%,35.686275%,85.882354%);fill-opacity:1;" d="M 116.796875 76.953125 L 87.109375 62.5 L 58.398438 78.320312 L 58.398438 128.125 L 85.15625 118.554688 L 84.960938 93.945312 Z M 116.796875 76.953125 "/>
<path style=" stroke:none;fill-rule:nonzero;fill:rgb(16.470589%,35.686275%,85.882354%);fill-opacity:1;" d="M 185.351562 42.578125 L 168.75 48.4375 L 174.804688 67.1875 L 125.195312 41.601562 L 95.3125 58.007812 L 163.867188 91.210938 L 144.726562 98.242188 L 150.78125 115.625 L 203.710938 96.679688 Z M 185.351562 42.578125 "/>
<path style=" stroke:none;fill-rule:nonzero;fill:rgb(16.470589%,35.686275%,85.882354%);fill-opacity:1;" d="M 155.078125 192.578125 L 86.71875 159.570312 L 105.859375 152.34375 L 99.804688 134.960938 L 46.875 153.90625 L 65.234375 208.007812 L 81.835938 202.34375 L 75.78125 183.398438 L 125.195312 208.984375 Z M 155.078125 192.578125 "/>
<path style=" stroke:none;fill-rule:nonzero;fill:rgb(16.470589%,35.686275%,85.882354%);fill-opacity:1;" d="M 165.429688 132.03125 L 165.625 156.835938 L 133.59375 173.632812 L 163.28125 188.085938 L 192.1875 172.265625 L 192.1875 122.65625 Z M 165.429688 132.03125 "/>
</g>
</svg>
